X:1
T:Title
%%score { ( 1 3 ) | ( 2 4 ) }
L:1/8
Q:1/4=100
M:4/4
K:A
V:1 treble nm="Grand Piano"
V:3 treble 
V:2 bass 
V:4 bass 
V:1
 [CA][CA] [CA]2 [CA]2 [CE]2 | [CA][B,G][CA][DB] [Ec]2 [Ec]2 | B2 B2 B2 E2 | %3
w: Chas.~H.~Gabriel * * * *|||
 [CA][B,G][CA][DB] [CA]4 | [CA]2 [CA][CA] [CA]2 [CE]2 | [CA][B,G][CA][DB] [Ec]2 [Ec]2 | %6
w: |||
 [FB]2 [Fd]2 [Ec]3 [DFB] | [CEA]2 [B,DG]2 [A,CA]4 | A4 z4 | CC C2 [Ec]2 z2 | BB B>c BAG[GB] | %11
w: |||||
 [FA][FA][EG][A,^DF] [G,E]4 | z4 [A,A]4 | F[FB] [FB]2 [FB]4 | B2 B2 A2 G2 | [CA]6 z2 |] %16
w: |||||
V:2
 [A,,E,][A,,E,] [A,,E,]2 [A,,E,]2 [A,,A,]2 | [A,,E,][A,,E,][A,,E,][A,,E,] [A,,A,]2 [A,,A,]2 | %2
 [E,G,E]2 [E,G,E]2 [E,G,E]2 [E,B,D]2 | [A,,A,]2 [A,,E,]2 [A,,E,]4 | %4
 [A,,E,]2 [A,,E,][A,,E,] [A,,E,]2 [A,,A,]2 | [A,,E,][A,,E,][A,,E,][A,,E,] [A,,A,]2 [A,,A,]2 | %6
 [D,A,]2 [B,,B,]2 [C,A,]3 D, | E,2 E,2 A,,4 | D,D, D,2 [D,A,]2 z2 | %9
 [A,,A,][A,,A,] [A,,A,]2 [A,,A,]2 z2 | [E,G,E][E,G,E] [E,G,E]>[E,A,E] [E,G,E][E,CE][E,B,E][E,B,] | %11
 [B,,B,][B,,B,][B,,B,]B,, z2 D2 | A,,A,, A,,2 A,,2 C,2 | [D,A,D][D,D] [D,D]2 [D,D]4 | %14
 [E,DE]2 [E,DE]2 [E,CE]2 [E,B,D]2 | [A,,A,]6 z2 |] %16
V:3
 x8 | x8 | x8 | x8 | x8 | x8 | x8 | x8 | [A,F][A,F] [A,F]2 [Fd]2 z2 | E4 z4 | x8 | x8 | %12
 [A,CE][A,CA] [A,CA]2 C2 E2 | x8 | x8 | x8 |] %16
V:4
 x8 | x8 | x8 | x8 | x8 | x8 | x8 | x8 | x8 | x8 | x8 | z4 E,4 | x8 | x8 | x8 | x8 |] %16

